X:1
T:James Gibb editions
T:Exaudi Deus - Croce
%%score [ 1 { 2 | 3 } 4 ]
L:1/8
Q:1/4=200
M:none
K:F
V:1 treble nm="Alto" snm="A"
V:2 treble-8 nm="Tenor I" snm="T"
V:3 treble-8 
V:4 bass nm="Bass" snm="B"
V:1
"^Giovanni Croce\n(1557-1609)" z16 |"^Exaudi Deus" z16 | z16 | F8 F4 G4 | (A6 G2 F8) | %5
w: |||Ex- au- di,|De\- * *|
 E4 E4 (A6 GF | A4) G4 F8 | F4 (F8 E4) | F4 A4 A4 F4 | G6 G2 G8 | z4 G8 F4 | G12 G4 | A12 G4 | %13
w: us, o- ra\- * *|* ti- o-|nem me\- *|am, et ne de-|spe- xe- ris|de- pre-|ca- ti-|o- nem|
 (F6 G2 A4 B4 | c8) A4 A4 | A4 G4 F8 | F4 F8 E4 | F6 F2 C4 c4- | %18
w: me\- * * *|* am: in-|ten- de mi-|hi et ex-|au- di me, et|
 c4 =B4[Q:1/4=197] (c6[Q:1/4=194] _B2 | %19
w: * ex- au\- *|
[Q:1/4=191] A6[Q:1/4=188] G[Q:1/4=187]F[Q:1/4=185] A4[Q:1/4=182] G4- | %20
w: |
[Q:1/4=180] G2[Q:1/4=179] F2[Q:1/4=175] F8)[Q:1/4=171] E4 |[Q:1/4=170] !fermata!F16 |] %22
w: * * * di|me.|
V:2
 z4 F4 A4 B4 | c8 c4 c4 | f4 e4 (e6 d2 | c4) c4 c8 | c4 c4 d4 A4 | c8 c4 c4 | c12 d4 | d4 d4 c8 | %8
w: Ex- au- di,|De- us, o-|ra- ti- o\- *|* nem me-|am, o- ra- ti-|o- nem, o-|ra- ti-|o- nem me-|
 c4 f4 f4 c4 | d6 d2 e4 e4- | e4 d4 e4 d2 c2 | e4 d4 (e6 d2 | e4) f4 c8 | c8 z4 f4 | f4 e4 f8 | %15
w: am, et ne de-|spe- xe- ris de\-|* pre- ca\- * *|* ti- o\- *|* nem me-|am: in-|ten- de mi-|
 c4 c4 c4 c4 | d8 G4 c4- | c4 A4 c6 G2 | F4 f8 e4 | f8 c4 c4- | c4 =B4 c6 c2 | !fermata!c16 |] %22
w: hi, in- ten- de|mi- hi et|* ex- au- di|me, et ex-|au- di, et|* ex- au- di|me.|
V:3
 z16 | z8 z4 F4 | A4 B4 c8 | A4 A4 A4 G4 | (F6 G2 A4) F4 | G8 F4 A4 | F4 G4 A4 A4 | (B6 A2 G8) | %8
w: |Ex-|au- di, De-|us, o- ra- ti-|o\- * * nem|me- am, o-|ra- ti- o- nem|me\- * *|
 F4 c4 c4 c4 | c4 =B4 c4 c4- | c4 =B4 c4 A4 | G4 G4 z4 (c4- | c2 B2 A2 G2 F4 G4 | A6 G2 F8 | %14
w: am, et ne de-|spe- xe- ris de\-|* pre- ca- ti-|o- nem me\-|||
 G8) F8 | z4 G4 A4 c4- | c4 =B4 c4 G4 | A4 F8 G4 | A4 G2 F2 A4 G4 | F8 F4 G4 | (A6 GF A4) G4 | %21
w: * am:|in- ten- de|* mi- hi et|ex- au\- *|* * * * di|me, et ex-|au\- * * * di|
 !fermata!F16 |] %22
w: me.|
V:4
 F,8 F,4 G,4 | A,8 F,4 F,4 | D,4 D,4 C,4 C,4 | F,8 F,4 E,4 | F,4 F,4 D,4 D,4 | C,8 F,4 F,4 | %6
w: Ex- au- di,|De- us, o-|ra- ti- o- nem|me- am, o-|ra- ti- o- nem|me- am, o-|
 F,4 E,4 (F,2 E,2 D,2 C,2 | B,,4) B,,4 C,8 | F,4 F,4 F,4 A,4 | G,6 G,2 C,8 | z8 z4 C4- | %11
w: ra- ti- o\- * * *|* nem me-|am, et ne de-|spe- xe- ris|de\-|
 C4 =B,4 (C6 _B,2 | A,2 G,2 F,8) E,4 | (F,6 E,2 D,4) D,4 | C,8 F,4 F,4 | F,4 E,4 (F,6 E,2 | %16
w: * pre- ca\- *|* * * ti-|o\- * * nem|me- am: in-|ten- de mi\- *|
 D,8 C,8) | F,4 F,8 E,4 | D,4 D,4 C,8 | z4 F,8 E,4 | D,8 C,8 | !fermata!F,16 |] %22
w: |hi et ex-|au- di me,|et ex-|au- di|me.|

